X:1
T:Title
%%score { ( 1 3 ) | 2 }
L:1/8
M:4/4
K:Bb
V:1 treble nm="Grand Piano"
V:3 treble 
V:2 bass 
V:1
 z4 z2[Q:1/4=96] [DF][DF] | [DB][DB][DB][DB] [DB][DF][FB]c | dddc [DB]2 [Fd][^Fc] | %3
 [GB][GB][GB][GB] [Gc][GB][FA][EG] | [DF]6 [DF][DF] |[M:3/4] [DB][DB] [DB][DB] [DB][DF] | %6
[M:1/4] [FB]c |[M:3/4] dd dc B2 |[M:1/4] [Gd][Gc] |[M:4/4] BBBc BAGA |[M:3/4] [B,DB]6 |[M:1/4] de | %12
[M:4/4] f4 z4 | d4 z4 | BBBB BBAB | [FAc]6 de | f4 z4 |[M:7/8] c2 d2 z z2 |[M:1/4] [Gd][Gc] | %19
[M:4/4] BBBc BAGA |[M:7/4] [DB]6 z2 z2 z4 |] %21
V:2
 z4 z2 [B,,B,][B,,B,] | [B,,F,][B,,F,][B,,F,][B,,F,] [B,,F,][B,,B,][D,B,][K:treble][F,A,F] | %2
 [B,F][B,F][K:bass][F,B,F][F,E] [B,,F,]2 [B,,B,][D,B,] | %3
 [E,B,][E,E][E,E][E,E] [E,E][E,E][E,B,][E,B,] | [B,,B,]6 [B,,B,][B,,B,] | %5
[M:3/4] [B,,B,][B,,F,] [B,,F,][B,,F,] [B,,F,][B,,B,] |[M:1/4] [D,B,][K:treble][F,A,F] | %7
[M:3/4] [B,F][B,F][K:bass] [F,A,F][F,A,E] [G,B,D]2 |[M:1/4] [E,=B,][E,C] | %9
[M:4/4] [F,DF][F,DF][F,DF][F,EF] [F,CF][F,CE][F,B,E][F,CE] |[M:3/4] B,,6 |[M:1/4] B,[K:treble]C | %12
[M:4/4] [B,DB][B,D][B,D][B,D][K:bass] [B,,B,]2 E[K:treble]D | %13
 [B,FB][B,F][B,F][B,F][K:bass] B,,2 [B,,B,][B,,B,] | %14
 [G,B,D][G,B,D][K:treble][G,DG][G,DG] [G,DG][G,DG][G,CG][G,DG] | F,6 B,[K:treble]C | %16
 [B,DB][B,D][B,D][B,D][K:bass] [B,,B,]2 ED |[M:7/8] [E,B,][E,B,][D,=B,] [D,B,] [C,C]3 | %18
[M:1/4] [E,=B,][E,C] |[M:4/4] [F,DF][F,DF][F,DF][F,EF] [F,CF][F,CE][F,B,E][F,CE] | %20
[M:7/4] [B,,B,]6 z2 z2 z4 |] %21
V:3
 x8 | x8 | x8 | x8 | x8 |[M:3/4] x6 |[M:1/4] x2 |[M:3/4] x6 |[M:1/4] x2 |[M:4/4] x8 |[M:3/4] x6 | %11
[M:1/4] x2 |[M:4/4] z BBB [Fd]2 cB | z BBB [DFB]2 [Fd][Ec] | x8 | x8 | z BBB [Fd]2 cB | %17
[M:7/8] GGG G [Ge]3 |[M:1/4] x2 |[M:4/4] x8 |[M:7/4] x14 |] %21

